material/.icons/material/google-circles-group.svg

<svg xmlns="http://www.w3.org/2000/svg" viewBox="0 0 24 24"><path d="M5 10a2 2 0 00-2 2 2 2 0 002 2c1.11 0 2-.89 2-2a2 2 0 00-2-2m0 6a4 4 0 01-4-4 4 4 0 014-4 4 4 0 014 4 4 4 0 01-4 4m5.5-5H14V8l4 4-4 4v-3h-3.5v-2M5 6c-.45 0-.89.05-1.31.14C5.63 3.05 9.08 1 13 1c6.08 0 11 4.92 11 11s-4.92 11-11 11c-3.92 0-7.37-2.05-9.31-5.14.42.09.86.14 1.31.14.8 0 1.56-.16 2.25-.44A7.956 7.956 0 0013 20a8 8 0 008-8 8 8 0 00-8-8c-2.26 0-4.29.93-5.75 2.44C6.56 6.16 5.8 6 5 6z"/></svg>

<?xml version="1.0" encoding="UTF-8"?><!DOCTYPE svg PUBLIC "-//W3C//DTD SVG 1.1//EN" "http://www.w3.org/Graphics/SVG/1.1/DTD/svg11.dtd"><svg xmlns="http://www.w3.org/2000/svg" xmlns:xlink="http://www.w3.org/1999/xlink" version="1.1" id="mdi-google-circles-group" width="24" height="24" viewBox="0 0 24 24"><path d="M5,10A2,2 0 0,0 3,12C3,13.11 3.9,14 5,14C6.11,14 7,13.11 7,12A2,2 0 0,0 5,10M5,16A4,4 0 0,1 1,12A4,4 0 0,1 5,8A4,4 0 0,1 9,12A4,4 0 0,1 5,16M10.5,11H14V8L18,12L14,16V13H10.5V11M5,6C4.55,6 4.11,6.05 3.69,6.14C5.63,3.05 9.08,1 13,1C19.08,1 24,5.92 24,12C24,18.08 19.08,23 13,23C9.08,23 5.63,20.95 3.69,17.86C4.11,17.95 4.55,18 5,18C5.8,18 6.56,17.84 7.25,17.56C8.71,19.07 10.74,20 13,20A8,8 0 0,0 21,12A8,8 0 0,0 13,4C10.74,4 8.71,4.93 7.25,6.44C6.56,6.16 5.8,6 5,6Z" /></svg>
